files/img/company3.svg

<svg width="130" height="130" fill="none" xmlns="http://www.w3.org/2000/svg">
  <path d="M60.3527 17.1609c1.4724-3.3034 2.209-4.9551 3.2342-5.4637a3.1782 3.1782 0 0 1 2.8265 0c1.0253.5086 1.7618 2.1603 3.2342 5.4637l11.7284 26.312c.4357.9765.6532 1.4648.9903 1.8387a3.1777 3.1777 0 0 0 1.0685.7767c.4598.2048.9916.2609 2.055.3731l28.6482 3.0237c3.597.3796 5.395.5694 6.196 1.3872a3.1814 3.1814 0 0 1 .873 2.6887c-.166 1.1322-1.51 2.3425-4.196 4.7639L95.6103 77.6105c-.7938.7155-1.1913 1.0736-1.4426 1.5093a3.1795 3.1795 0 0 0-.4083 1.2568c-.0528.5005.0579 1.0233.2799 2.0696l5.9777 28.1808c.75 3.538 1.125 5.307.595 6.32a3.1787 3.1787 0 0 1-2.2872 1.662c-1.1283.191-2.6948-.712-5.8279-2.519l-24.9545-14.393c-.9261-.534-1.3891-.801-1.8814-.906a3.1987 3.1987 0 0 0-1.3216 0c-.4923.105-.9554.372-1.8814.906L37.5036 116.09c-3.1329 1.807-4.6994 2.71-5.8278 2.519a3.178 3.178 0 0 1-2.2871-1.662c-.5304-1.013-.1552-2.782.5953-6.32l5.9771-28.1808c.2219-1.0463.3328-1.5691.2801-2.0696a3.1827 3.1827 0 0 0-.4083-1.2568c-.2516-.4357-.6487-.7938-1.4429-1.5093L12.9901 58.3249c-2.6866-2.4214-4.03-3.6317-4.197-4.7639a3.1804 3.1804 0 0 1 .8736-2.6887c.8006-.8178 2.599-1.0076 6.1957-1.3872l28.6485-3.0237c1.0633-.1122 1.5949-.1683 2.0546-.3731a3.1806 3.1806 0 0 0 1.069-.7767c.3368-.3739.5544-.8622.9898-1.8387l11.7284-26.312Z" stroke="#F6B17A" stroke-width="5" stroke-linecap="round" stroke-linejoin="round"/>
  <path d="M64.5327 87.0923c-2.1 0-3.962-.434-5.586-1.302-1.624-.896-2.898-2.1-3.822-3.612-.924-1.54-1.386-3.262-1.386-5.166 0-.644.182-1.162.546-1.554.392-.42.854-.63 1.386-.63.56 0 1.022.21 1.386.63.364.392.546.91.546 1.554 0 1.148.294 2.212.882 3.192.588.952 1.386 1.722 2.394 2.31 1.008.56 2.142.84 3.402.84 1.848 0 3.332-.504 4.452-1.512 1.148-1.036 1.722-2.478 1.722-4.326 0-1.176-.252-2.226-.756-3.15-.504-.952-1.19-1.708-2.058-2.268-.868-.56-1.848-.84-2.94-.84-.616 0-1.134-.21-1.554-.63-.392-.42-.588-.938-.588-1.554 0-.616.196-1.12.588-1.512.42-.42.938-.63 1.554-.63.784 0 1.54-.196 2.268-.588.728-.42 1.33-.966 1.806-1.638.476-.7.714-1.484.714-2.352 0-1.232-.448-2.268-1.344-3.108-.896-.84-2.044-1.26-3.444-1.26-1.064 0-2.044.21-2.94.63-.868.42-1.568.98-2.1 1.68-.504.7-.756 1.484-.756 2.352 0 .644-.182 1.19-.546 1.638-.364.42-.826.63-1.386.63-.532 0-.994-.196-1.386-.588-.364-.42-.546-.938-.546-1.554 0-1.624.42-3.08 1.26-4.368.84-1.288 1.988-2.296 3.444-3.024 1.456-.756 3.08-1.134 4.872-1.134 1.652 0 3.136.364 4.452 1.092 1.344.7 2.394 1.666 3.15 2.898.784 1.204 1.176 2.576 1.176 4.116 0 1.092-.252 2.058-.756 2.898-.476.84-1.092 1.568-1.848 2.184-.756.588-1.554 1.078-2.394 1.47 1.484.504 2.688 1.19 3.612 2.058.924.84 1.596 1.82 2.016 2.94.448 1.12.672 2.338.672 3.654 0 1.82-.462 3.458-1.386 4.914-.924 1.428-2.156 2.562-3.696 3.402-1.54.812-3.234 1.218-5.082 1.218Z" fill="#F6B17A"/>
</svg>

<svg width="130" height="130" viewBox="0 0 130 130" fill="none" xmlns="http://www.w3.org/2000/svg">
<path d="M60.3527 17.1609C61.8251 13.8575 62.5617 12.2058 63.5869 11.6972C64.4774 11.2552 65.523 11.2552 66.4134 11.6972C67.4387 12.2058 68.1752 13.8575 69.6476 17.1609L81.376 43.4729C81.8117 44.4494 82.0292 44.9377 82.3663 45.3116C82.6639 45.6425 83.0284 45.9071 83.4348 46.0883C83.8946 46.2931 84.4264 46.3492 85.4898 46.4614L114.138 49.4851C117.735 49.8647 119.533 50.0545 120.334 50.8723C121.029 51.5827 121.352 52.5775 121.207 53.561C121.041 54.6932 119.697 55.9035 117.011 58.3249L95.6103 77.6105C94.8165 78.326 94.419 78.6841 94.1677 79.1198C93.9451 79.5058 93.8058 79.9339 93.7594 80.3766C93.7066 80.8771 93.8173 81.3999 94.0393 82.4462L100.017 110.627C100.767 114.165 101.142 115.934 100.612 116.947C100.151 117.829 99.3049 118.443 98.3248 118.609C97.1965 118.8 95.63 117.897 92.4969 116.09L67.5424 101.697C66.6163 101.163 66.1533 100.896 65.661 100.791C65.2253 100.699 64.775 100.699 64.3394 100.791C63.8471 100.896 63.384 101.163 62.458 101.697L37.5036 116.09C34.3707 117.897 32.8042 118.8 31.6758 118.609C30.6956 118.443 29.8495 117.829 29.3887 116.947C28.8583 115.934 29.2335 114.165 29.984 110.627L35.9611 82.4462C36.183 81.3999 36.2939 80.8771 36.2412 80.3766C36.1946 79.9339 36.0555 79.5058 35.8329 79.1198C35.5813 78.6841 35.1842 78.326 34.39 77.6105L12.9901 58.3249C10.3035 55.9035 8.96011 54.6932 8.79309 53.561C8.64807 52.5775 8.97124 51.5827 9.66667 50.8723C10.4673 50.0545 12.2657 49.8647 15.8624 49.4851L44.5109 46.4614C45.5742 46.3492 46.1058 46.2931 46.5655 46.0883C46.9723 45.9071 47.3364 45.6425 47.6345 45.3116C47.9713 44.9377 48.1889 44.4494 48.6243 43.4729L60.3527 17.1609Z" stroke="#F6B17A" stroke-width="5" stroke-linecap="round" stroke-linejoin="round"/>
<path d="M64.5327 87.0923C62.4327 87.0923 60.5707 86.6583 58.9467 85.7903C57.3227 84.8943 56.0487 83.6903 55.1247 82.1783C54.2007 80.6383 53.7387 78.9163 53.7387 77.0123C53.7387 76.3683 53.9207 75.8503 54.2847 75.4583C54.6767 75.0383 55.1387 74.8283 55.6707 74.8283C56.2307 74.8283 56.6927 75.0383 57.0567 75.4583C57.4207 75.8503 57.6027 76.3683 57.6027 77.0123C57.6027 78.1603 57.8967 79.2243 58.4847 80.2043C59.0727 81.1563 59.8707 81.9263 60.8787 82.5143C61.8867 83.0743 63.0207 83.3543 64.2807 83.3543C66.1287 83.3543 67.6127 82.8503 68.7327 81.8423C69.8807 80.8063 70.4547 79.3643 70.4547 77.5163C70.4547 76.3403 70.2027 75.2903 69.6987 74.3663C69.1947 73.4143 68.5087 72.6583 67.6407 72.0983C66.7727 71.5383 65.7927 71.2583 64.7007 71.2583C64.0847 71.2583 63.5667 71.0483 63.1467 70.6283C62.7547 70.2083 62.5587 69.6903 62.5587 69.0743C62.5587 68.4583 62.7547 67.9543 63.1467 67.5623C63.5667 67.1423 64.0847 66.9323 64.7007 66.9323C65.4847 66.9323 66.2407 66.7363 66.9687 66.3443C67.6967 65.9243 68.2987 65.3783 68.7747 64.7063C69.2507 64.0063 69.4887 63.2223 69.4887 62.3543C69.4887 61.1223 69.0407 60.0863 68.1447 59.2463C67.2487 58.4063 66.1007 57.9863 64.7007 57.9863C63.6367 57.9863 62.6567 58.1963 61.7607 58.6163C60.8927 59.0363 60.1927 59.5963 59.6607 60.2963C59.1567 60.9963 58.9047 61.7803 58.9047 62.6483C58.9047 63.2923 58.7227 63.8383 58.3587 64.2863C57.9947 64.7063 57.5327 64.9163 56.9727 64.9163C56.4407 64.9163 55.9787 64.7203 55.5867 64.3283C55.2227 63.9083 55.0407 63.3903 55.0407 62.7743C55.0407 61.1503 55.4607 59.6943 56.3007 58.4063C57.1407 57.1183 58.2887 56.1103 59.7447 55.3823C61.2007 54.6263 62.8247 54.2483 64.6167 54.2483C66.2687 54.2483 67.7527 54.6123 69.0687 55.3403C70.4127 56.0403 71.4627 57.0063 72.2187 58.2383C73.0027 59.4423 73.3947 60.8143 73.3947 62.3543C73.3947 63.4463 73.1427 64.4123 72.6387 65.2523C72.1627 66.0923 71.5467 66.8203 70.7907 67.4363C70.0347 68.0243 69.2367 68.5143 68.3967 68.9063C69.8807 69.4103 71.0847 70.0963 72.0087 70.9643C72.9327 71.8043 73.6047 72.7843 74.0247 73.9043C74.4727 75.0243 74.6967 76.2423 74.6967 77.5583C74.6967 79.3783 74.2347 81.0163 73.3107 82.4723C72.3867 83.9003 71.1547 85.0343 69.6147 85.8743C68.0747 86.6863 66.3807 87.0923 64.5327 87.0923Z" fill="#F6B17A"/>
</svg>
